z_dist/img/icons/refund/money.svg

<svg width="30" height="30" viewBox="0 0 30 30" fill="none" xmlns="http://www.w3.org/2000/svg">
<path d="M15 30C6.7155 30 0 23.2845 0 15C0 6.7155 6.7155 0 15 0C23.2845 0 30 6.7155 30 15C30 23.2845 23.2845 30 15 30ZM9.75 18V21H13.5V24H16.5V21H18C18.9946 21 19.9484 20.6049 20.6516 19.9016C21.3549 19.1984 21.75 18.2446 21.75 17.25C21.75 16.2554 21.3549 15.3016 20.6516 14.5983C19.9484 13.8951 18.9946 13.5 18 13.5H12C11.8011 13.5 11.6103 13.421 11.4697 13.2803C11.329 13.1397 11.25 12.9489 11.25 12.75C11.25 12.5511 11.329 12.3603 11.4697 12.2197C11.6103 12.079 11.8011 12 12 12H20.25V9H16.5V6H13.5V9H12C11.0054 9 10.0516 9.39509 9.34835 10.0983C8.64509 10.8016 8.25 11.7554 8.25 12.75C8.25 13.7446 8.64509 14.6984 9.34835 15.4017C10.0516 16.1049 11.0054 16.5 12 16.5H18C18.1989 16.5 18.3897 16.579 18.5303 16.7197C18.671 16.8603 18.75 17.0511 18.75 17.25C18.75 17.4489 18.671 17.6397 18.5303 17.7803C18.3897 17.921 18.1989 18 18 18H9.75Z" fill="#E0BEA2"/>
</svg>

<svg width="30" height="30" fill="none" xmlns="http://www.w3.org/2000/svg"><path d="M15 30C6.715 30 0 23.285 0 15S6.715 0 15 0s15 6.715 15 15-6.715 15-15 15zM9.75 18v3h3.75v3h3v-3H18a3.75 3.75 0 100-7.5h-6a.75.75 0 110-1.5h8.25V9H16.5V6h-3v3H12a3.75 3.75 0 100 7.5h6a.75.75 0 110 1.5H9.75z" fill="#E0BEA2"/></svg>
